X:1
T: The Cutty Sark
T: 8x32J 3C
P: Thrums March
C: Traditional, arr. T. Traub 7-30-03
M: 6/8
R: jig
L: 1/8
K: G
|: D|"G"GDG BAG|"C"ECE "G"D2 c|"G"BAG dBG|"D"FAA ABc|"G"BAB "Em"GFG|"C"ECE "D"D2 c|"G"BAG "D"FGA |"G"AGG G2 :|
d|"G"Bcd g2 d |"C"ece "G"d2 c|"G"BAG dBG|"D"FAA A2 c|"G"Bcd g2 d |"C"ece "D"d2 c|"G"BAG "D"FGA|"G"AGG G2 d||
"G"Bcd g2 d |"C"ece "G"d2 c|"G"BAG dBG|"D"FAA ABc|"G"BAB GFG|"C"ECE "G"D2 c|"G"BAG "D"FGA|"G"AGG G2 |]
